X:54
T:Polska ur Petter Dufvas notbok (Ma6-54)
R:Polska
O:Verkelbäck, Småland
B:Petter Dufvas notbok
S:Petter Dufva
N:Smus Ma6 bild 57
M:3/4
L:1/8
K:D
Acdfed | ceAAAA | dFGBAG | FADDDD | BBBBBB | 
B/2A/2G/2F/2 EEEE | AAAAAA | A/2G/2F/2E/2 DDDD | GBAGFE | FE D2 D2 !fine! :|:
Acec A2 | fedc B2 | fedcBA | ^GABG E2 | dcBA^GA | E^G A2 A2 :|

